assets/images/phone.svg

<svg width="42" height="42" viewBox="0 0 42 42" fill="none" xmlns="http://www.w3.org/2000/svg">
<rect width="42" height="42" fill="#9C9D9F"/>
<path fill-rule="evenodd" clip-rule="evenodd" d="M15.2024 12.1335L18.3733 15.3044C18.4562 15.3873 18.5027 15.4997 18.5027 15.6169C18.5027 15.7342 18.4562 15.8466 18.3733 15.9295C17.7875 16.5153 16.9249 17.3779 16.3908 17.9155C16.1813 18.1256 16.0484 18.4 16.0136 18.6946C15.9787 18.9893 16.0438 19.2871 16.1985 19.5403C16.6707 20.2804 17.604 21.609 18.9984 23.0034C20.0505 24.0561 21.2104 24.9952 22.4589 25.8051L22.4713 25.8126C22.7249 25.9641 23.0218 26.0265 23.3149 25.9901C23.608 25.9537 23.8806 25.8204 24.0894 25.6115L26.0723 23.6286C26.1552 23.5457 26.2677 23.4991 26.3849 23.4991C26.5021 23.4991 26.6146 23.5457 26.6975 23.6286L29.8684 26.7995C29.951 26.8825 29.9974 26.9949 29.9974 27.112C29.9974 27.2292 29.951 27.3416 29.8684 27.4246C29.4072 27.8853 28.7653 28.5277 28.1994 29.0892L28.198 29.0905C27.8297 29.4588 27.3742 29.728 26.874 29.8733C26.3738 30.0185 25.845 30.035 25.3366 29.9213C23.3586 29.4531 20.1661 28.2262 16.9709 25.031C13.7757 21.8358 12.5488 18.6432 12.077 16.6656C11.9633 16.1568 11.9799 15.6275 12.1253 15.1268C12.2708 14.6261 12.5404 14.1702 12.9091 13.8016L14.5772 12.1335C14.6603 12.0508 14.7726 12.0044 14.8898 12.0044C15.007 12.0044 15.1194 12.0508 15.2024 12.1335ZM21.0795 13.4063C25.2279 13.4063 28.5955 16.774 28.5955 20.9224C28.5955 21.0396 28.6421 21.1521 28.725 21.235C28.8079 21.3179 28.9204 21.3645 29.0376 21.3645C29.1549 21.3645 29.2673 21.3179 29.3503 21.235C29.4332 21.1521 29.4797 21.0396 29.4797 20.9224C29.4797 16.2863 25.7155 12.5221 21.0795 12.5221C20.9622 12.5221 20.8498 12.5687 20.7669 12.6516C20.6839 12.7345 20.6374 12.847 20.6374 12.9642C20.6374 13.0815 20.6839 13.1939 20.7669 13.2768C20.8498 13.3598 20.9622 13.4063 21.0795 13.4063Z" fill="#141414"/>
<path fill-rule="evenodd" clip-rule="evenodd" d="M21.0796 16.059C23.7637 16.059 25.9429 18.2382 25.9429 20.9224C25.9429 21.0396 25.9895 21.1521 26.0724 21.235C26.1553 21.3179 26.2677 21.3645 26.385 21.3645C26.5023 21.3645 26.6147 21.3179 26.6976 21.235C26.7805 21.1521 26.8271 21.0396 26.8271 20.9224C26.8271 17.7501 24.2518 15.1748 21.0796 15.1748C20.9623 15.1748 20.8499 15.2214 20.7669 15.3043C20.684 15.3872 20.6375 15.4997 20.6375 15.6169C20.6375 15.7342 20.684 15.8466 20.7669 15.9295C20.8499 16.0125 20.9623 16.059 21.0796 16.059Z" fill="#141414"/>
<path fill-rule="evenodd" clip-rule="evenodd" d="M21.0796 18.7119C22.2998 18.7119 23.2902 19.7022 23.2902 20.9225C23.2902 21.0397 23.3367 21.1522 23.4197 21.2351C23.5026 21.318 23.615 21.3646 23.7323 21.3646C23.8495 21.3646 23.962 21.318 24.0449 21.2351C24.1278 21.1522 24.1744 21.0397 24.1744 20.9225C24.1744 19.2146 22.7875 17.8276 21.0796 17.8276C20.9623 17.8276 20.8499 17.8742 20.7669 17.9571C20.684 18.04 20.6375 18.1525 20.6375 18.2698C20.6375 18.387 20.684 18.4995 20.7669 18.5824C20.8499 18.6653 20.9623 18.7119 21.0796 18.7119Z" fill="#141414"/>
</svg>

<svg width="42" height="42" fill="none" xmlns="http://www.w3.org/2000/svg"><path fill="#9C9D9F" d="M0 0h42v42H0z"/><path fill-rule="evenodd" clip-rule="evenodd" d="m15.202 12.133 3.171 3.171a.442.442 0 0 1 0 .626c-.585.585-1.448 1.448-1.982 1.986a1.323 1.323 0 0 0-.192 1.624 21.219 21.219 0 0 0 6.26 6.265l.012.008a1.326 1.326 0 0 0 1.618-.201l1.983-1.983a.442.442 0 0 1 .626 0l3.17 3.17a.443.443 0 0 1 0 .626c-.46.46-1.103 1.103-1.669 1.664l-.001.002a3.092 3.092 0 0 1-2.861.83c-1.978-.468-5.17-1.695-8.366-4.89-3.195-3.195-4.422-6.388-4.894-8.365a3.096 3.096 0 0 1 .832-2.864l1.668-1.668a.443.443 0 0 1 .625 0Zm5.877 1.273a7.52 7.52 0 0 1 7.517 7.516.442.442 0 0 0 .884 0c0-4.636-3.765-8.4-8.4-8.4a.442.442 0 1 0 0 .884Z" fill="#141414"/><path fill-rule="evenodd" clip-rule="evenodd" d="M21.08 16.059a4.866 4.866 0 0 1 4.863 4.863.442.442 0 0 0 .884 0 5.75 5.75 0 0 0-5.747-5.747.442.442 0 0 0 0 .884Z" fill="#141414"/><path fill-rule="evenodd" clip-rule="evenodd" d="M21.08 18.712c1.22 0 2.21.99 2.21 2.21a.442.442 0 1 0 .884 0 3.097 3.097 0 0 0-3.094-3.094.442.442 0 0 0 0 .884Z" fill="#141414"/></svg>
